X:313
T:Bengullion
C:Joe Buchanan's Scottish Tome - Page 086.0
I:086 0
R:March
Z:Carl Allison
L:1/8
M:6/8
K:C
e | "Am"A>ee "Em7"e2d | "Am"e<gf "D7"e2d | "G"d>BG "D"G2d | "G"B<AB "E7"d2e |
"Am"A>ee "Em7"e2d | "Am"e<gf "D7"e2d | "G"B>AG "E7"B<de | "Am"A3A2 :|
B | "Am"A>aa "Em7"a2g | "Am"g<ed "D7"e2d | "G"B>AG "D7"G2d | "G"B<AB "E7"d2e |
"Am"A>aa "Em7"a2g | "Am"g<ag "D7"e2d | "G"B>AG "E7"Bd>e | "Am"A3A2 e |
"Am"A>aa "Em7"a2g | "Am"g<ag "D7"e2d | "G"B>AG "E7"G2 d | "G"BA<B "E7"d2e |
"Am"A>ee "Em7"e2d | "Am"e<gf "D7"e2d | "G"B>AG "E7"B>de | "Am"A3 A2 |]
e | "Em"A>eA "Em7"B>ee | "Am"e<gf "D7"e>ge | "G"d>BG "D"G2d | "G"BA<B "E7"d2e |
"Am"A>eA "Em7"B>ee | "Am"e<gf "D7"e2d | "G"B>AG "E7"Bd>e | "Am"A3A2 :|
B | "Am"A>aa "Em7"e>aa | "Am"g<ed "D7"e2g | "G"B>AG "D7"G2d | "G"B<AB "E7"d2e |
"Am"A>aa "Em7"e>ae | "Am"g<ag "D7"e2d | "G"B>AG "E7"B>de | "Am"A3A2 e |
"Am"A>aa "Em7"e>aa | "Am"g<ed "D7"e2g | "G"B>AG "D7"G2d | "G"B<AB "E7"d2e |
"Am"A>ee "Em7"e2d | "Am"e<gf "D7"e2d | "G"B>AG "E7"B<de | "Am"A3A2 |]
